X:1
T:Quasi adagio
T:Children's Game
T:Béla Bartók Revised and Arranged by the Composer, January 1945 
T:Book 1 (after Hungarian Folksongs)
T:For Children Nr 8, Sz 42
C:Bela bartok
%%score { 1 | ( 2 3 ) }
L:1/8
Q:1/4=120
M:2/4
K:C
V:1 treble nm="Piano"
V:2 bass 
V:3 bass 
V:1
!mf!"^Allegretto," .!3!F(!3!F!2!E)(!2!E | .!1!D).!2!D.!1!D z | .F(FE).E | %3
 !tenuto!.!1!D2 !tenuto!.!2!E2 | .F.G !tenuto!A2 | .F.G !tenuto!A2 | .A.G.F.E | %7
 !tenuto!!1!D2 !tenuto!!1!D2 |!f! .!2!F.G!<(! !tenuto!A2 | .F.G !tenuto!A2!<)! | .!^!!5!A.G.F.E | %11
 !tenuto!D2 !tenuto!D2 |!p! (!3!A2 GF | !4!A)(!3!A"_poco cresc."GF) | (!3!A2 GF | !4!A)!3!AGF | %16
!mf! (!3!AcBA | !tenuto!G2) !tenuto!!1!G2 | (!2!A!p!!4!cBA | !tenuto!!1!G2) !tenuto!!2!G2 | %20
"_1" z4 |!ppp![Q:1/4=55]"^Adagio" !4
2
![df]4- | !fermata![df]4 | !3
1
![Ae]4- | !fermata![Ae]4 | %25
"_1" z4 |[Q:1/4=120]"^Tempo I."!p! !3!F(F!2!E)(E | .!1!D).!2!D.!1!D z |!<(! F(FE).E | %29
 !tenuto!.D2 !tenuto!.E2!<)! |!mf! .F.G !tenuto!A2 | .F.G !tenuto!A2 |"_dim." .A.G.F.E | %33
 !tenuto!D2 !tenuto!D2 |!p![Q:1/4=100]"^T""^poco rit.    -    -    -    -" .!2!F.G !tenuto!A2 | %35
 .F.G !tenuto!A2 |!f![Q:1/4=120]"^T""^a tempo" .A.G.F.E | !tenuto!D2 !tenuto!D2 |!mp! (!3!A2 GF | %39
 !4!A)(!3!A"_poco"GF) | (!3!A2 GF | !4!A)(!3!AGF) |!mf! A(cBA | !tenuto!G2) !tenuto!!1!G2 | %44
 (!2!A!p!cBA | !tenuto!G2) !tenuto!G2 |"_1" z4 |!ppp![Q:1/4=55]"^T""^Adagio" !4
2
![df]4- | %48
 !fermata![df]4 | !3
1
![Ae]4- | !fermata![Ae]4 |"_1" z4 |[Q:1/4=120]"^Tempo I."!p! .!3!F(FE)(E | %53
 .!1!D).!2!D.!1!D z | F(FE).E | !tenuto!.D2 !tenuto!.E2 | .F.G !tenuto!A2 | .F.G !tenuto!A2 | %58
"^rit.    -    -    -    -    -    -    -"[Q:1/4=90]"^T" (.A.G.F.E | %59
[Q:1/4=80]"^T" !tenuto!!1!D2) !tenuto!!1!D2 |"^a tempo"[Q:1/4=120]"^T" (!3!A2 GF | %61
"_cresc." !4!A)(!3!AGF) | (A2 GF | !4!A)(!3!AGF) |!f! (AcBA | !tenuto!G2) !tenuto!!1!G2 | %66
!mf![Q:1/4=90]"^T""^rit.    -    -    -    -    -    -    -""_dim." (!2!AcBA | %67
[Q:1/4=80]"^T" !tenuto!G2) !tenuto!G2 |"_1" z4 |!ppp!"^Adagio"[Q:1/4=55]"^T" !4
2
![df]4- | %70
 !fermata![df]4 | !3
1
![Ae]4- | !fermata![Ae]4 |] %73
V:2
 !tenuto!.!1
2
5

![D,F,A,]2 !tenuto!.[D,G,A,]2 | .[D,F,A,].[D,F,A,].[D,F,A,] z | %2
 !tenuto!.[D,F,A,]2 !tenuto!.[D,G,A,]2 | !tenuto!.!1
3
5
![D,F,A,]2 !tenuto!.!1
2
5
![C,G,_B,]2 | %4
 z2 !1
2
5
![C,F,A,]2 | z2 [C,F,A,]2 | z2 !tenuto!.!1
2
5
![C,G,_B,]2 | %7
 !1
3
5
![D,F,A,]2 [D,F,A,]2 | z2 .!3!F,,.G,, | !tenuto!A,,2 .F,,.G,, | .!^!A,,.G,,.F,,.E,, | %11
 !tenuto!D,,2 !tenuto!D,,2 | z4 | (!1
3
![A,C]!5!F,[A,C]F, | [A,C]F,[A,C]F, | [A,C]F,[A,C]F, | %16
 [A,C]F,)(!1!D!3!B,) | (!1!E!2!C) z2 | (!1
3
![A,C]!5!F,)(!1!D!3!B,) | (!1!E!2!C) z2 | z4 | %21
 !1
3
![D,F,]4- | !fermata![D,F,]4 | !5
!!2![A,,E,]4- | !fermata![A,,E,]4 | z4 | z4 | %27
 z2 .[D,G,B,] z | z2 !tenuto!.[C,G,_B,]2 | !tenuto!.[D,F,A,]2 !tenuto!.[C,G,_B,]2 | %30
 z2 !tenuto!!1
3
5
![D,F,C]2 | z2 !tenuto!!1
3
5
![D,F,B,]2 | z4 |!>(! .!1!A,.G,.F,.E,!>)! | %34
 z2 !1
3
5
![D,F,B,]2 | z2"^(""^)" !2
3
5
![C,F,A,]2 | z2 .A,,.G,, | .F,,.E,, !tenuto!D,,2 | z4 | %39
 (!1
3
![B,D]!5!G,[B,D]G, | [B,D]G,[B,D]G, | [B,D]G,[B,D]G,) | (!2
4
![A,C]!5!G,!1
3
![B,D]!5!G, | %43
 !1!E!2!C) z2 | ([A,C]G,[B,D]G, | EC) z2 | z4 | !1
3
![D,F,]4- | !fermata![D,F,]4 | %49
 !2
5
![A,,E,]4- | !fermata![A,,E,]4 | z4 | z2 .!1
4
5

![_B,,C,G,]2 | z2 .!1
3
5
![_B,,D,F,]2 | %54
 z2 .!1
4
5
![_B,,C,G,]2 | z2 .[_B,,C,G,]2 | z2 !tenuto![A,CE]2 | !tenuto!D2 !tenuto![A,CE]2 | %58
 z2 [G,B,]2- | [G,B,]4- | [G,B,]2 z2 | (!1
3
![B,,D,]!5!G,,)(!1
3
![C,E,]!5!A,,) | %62
"_simile" ([D,F,]B,,)([E,G,]C,) | ([F,A,]D,)([G,B,]E,) | ([A,C]F,)([B,D]G,) | !1!E!2!C z2 | %66
 ([A,C]F,)([B,D]G,) | EC z2 | z4 | !1
3
![D,F,]4- | !fermata![D,F,]4 | !2
5
![A,,E,]4- | %72
 !fermata![A,,E,]4 |] %73
V:3
 x4 | x4 | x4 | x4 | x4 | x4 | x4 | x4 | x4 | x4 | x4 | x4 | x4 | x4 | x4 | x4 | x4 | x4 | x4 | %19
 x4 | x4 | x4 | x4 | x4 | x4 | x4 | x4 | x4 | x4 | x4 | x4 | x4 | x4 | x4 | x4 | x2 !1!C2 | x4 | %37
 x4 | x4 | x4 | x4 | x4 | x4 | x4 | x4 | x4 | x4 | x4 | x4 | x4 | x4 | x4 | x4 | x4 | x4 | x4 | %56
 x4 | x4 | x4 | x4 | x4 | x4 | x4 | x4 | x4 | x4 | x4 | x4 | x4 | x4 | x4 | x4 | x4 |] %73

